teeny/outline/more-horizontal.svg

<svg width="15" height="15" viewBox="0 0 15 15" fill="none" xmlns="http://www.w3.org/2000/svg">
<path d="M3 7.5C3 7.77614 2.77614 8 2.5 8C2.22386 8 2 7.77614 2 7.5C2 7.22386 2.22386 7 2.5 7C2.77614 7 3 7.22386 3 7.5Z" stroke="black"/>
<path d="M8 7.5C8 7.77614 7.77614 8 7.5 8C7.22386 8 7 7.77614 7 7.5C7 7.22386 7.22386 7 7.5 7C7.77614 7 8 7.22386 8 7.5Z" stroke="black"/>
<path d="M13 7.5C13 7.77614 12.7761 8 12.5 8C12.2239 8 12 7.77614 12 7.5C12 7.22386 12.2239 7 12.5 7C12.7761 7 13 7.22386 13 7.5Z" stroke="black"/>
</svg>

<svg viewBox="0 0 15 15" xmlns="http://www.w3.org/2000/svg"><g fill="none" stroke="#000"><path d="M3 7.5c0 .27-.23.5-.5.5 -.28 0-.5-.23-.5-.5 0-.28.22-.5.5-.5 .27 0 .5.22.5.5Z"/><path d="M8 7.5c0 .27-.23.5-.5.5 -.28 0-.5-.23-.5-.5 0-.28.22-.5.5-.5 .27 0 .5.22.5.5Z"/><path d="M13 7.5c0 .27-.23.5-.5.5 -.28 0-.5-.23-.5-.5 0-.28.22-.5.5-.5 .27 0 .5.22.5.5Z"/></g></svg>
